static/fa/svgs/solid/face-grin-squint.svg

<svg xmlns="http://www.w3.org/2000/svg" viewBox="0 0 512 512"><!--! Font Awesome Free 6.1.1 by @fontawesome - https://fontawesome.com License - https://fontawesome.com/license/free (Icons: CC BY 4.0, Fonts: SIL OFL 1.1, Code: MIT License) Copyright 2022 Fonticons, Inc.--><path d="M0 256C0 114.6 114.6 0 256 0s256 114.6 256 256-114.6 256-256 256S0 397.4 0 256zm256.3 75.8c-47.4 0-92.2-6.9-131.8-19-12.3-3.8-24.3 6.9-19.3 18.7C130.1 390.6 188.4 432 256.3 432c67.9 0 126.1-41.4 151.1-100.5 5-11.8-7-22.5-19.3-18.7-39.7 12.1-84.4 19-131.8 19zM133.5 146.7c-7.9-4.3-17.5 1.5-17.5 10.4 0 2.8.1 5.5 2.8 7.7l36 43.2-36 43.2c-2.7 2.2-2.8 4.9-2.8 7.7 0 8.9 9.6 14.7 17.5 10.4l89.9-47.9c10.7-5.7 10.7-21.1 0-26.8l-89.9-47.9zM396 157.1c0-8.9-9.6-14.7-17.5-10.4l-89.9 47.9c-10.7 5.7-10.7 21.1 0 26.8l89.9 47.9c7.9 4.3 17.5-1.5 17.5-10.4 0-2.8-1-5.5-2.8-7.7l-36-43.2 36-43.2c1.8-2.2 2.8-4.9 2.8-7.7z"/></svg>

<svg xmlns="http://www.w3.org/2000/svg" viewBox="0 0 512 512"><!--! Font Awesome Free 6.1.1 by @fontawesome - https://fontawesome.com License - https://fontawesome.com/license/free (Icons: CC BY 4.0, Fonts: SIL OFL 1.1, Code: MIT License) Copyright 2022 Fonticons, Inc. --><path d="M0 256C0 114.6 114.6 0 256 0C397.4 0 512 114.6 512 256C512 397.4 397.4 512 256 512C114.6 512 0 397.4 0 256zM256.3 331.8C208.9 331.8 164.1 324.9 124.5 312.8C112.2 309 100.2 319.7 105.2 331.5C130.1 390.6 188.4 432 256.3 432C324.2 432 382.4 390.6 407.4 331.5C412.4 319.7 400.4 309 388.1 312.8C348.4 324.9 303.7 331.8 256.3 331.8H256.3zM133.5 146.7C125.6 142.4 116 148.2 116 157.1C116 159.9 116.1 162.6 118.8 164.8L154.8 208L118.8 251.2C116.1 253.4 116 256.1 116 258.9C116 267.8 125.6 273.6 133.5 269.3L223.4 221.4C234.1 215.7 234.1 200.3 223.4 194.6L133.5 146.7zM396 157.1C396 148.2 386.4 142.4 378.5 146.7L288.6 194.6C277.9 200.3 277.9 215.7 288.6 221.4L378.5 269.3C386.4 273.6 396 267.8 396 258.9C396 256.1 395 253.4 393.2 251.2L357.2 208L393.2 164.8C395 162.6 396 159.9 396 157.1V157.1z"/></svg>
